;FLAVOR:Marlin
;TIME:11658
;Filament used: 11.9607m
;Layer height: 0.28
;MINX:76.5
;MINY:62.975
;MINZ:0.28
;MAXX:158.5
;MAXY:180.702
;MAXZ:35.84
;TARGET_MACHINE.NAME:Creality Ender-3
;Generated with Cura_SteamEngine 5.6.0
M140 S50
M105
M190 S50
M104 S200
M105
M109 S200
M82 ;absolute extrusion mode
; Ender 3 Custom Start G-code
G92 E0 ; Reset Extruder
G28 ; Home all axes
G1 Z2.0 F3000 ; Move Z Axis up little to prevent scratching of Heat Bed
G1 X0.1 Y20 Z0.3 F5000.0 ; Move to start position
G1 X0.1 Y200.0 Z0.3 F1500.0 E15 ; Draw the first line
G1 X0.4 Y200.0 Z0.3 F5000.0 ; Move to side a little
G1 X0.4 Y20 Z0.3 F1500.0 E30 ; Draw the second line
G92 E0 ; Reset Extruder
G1 Z2.0 F3000 ; Move Z Axis up little to prevent scratching of Heat Bed
G1 X5 Y20 Z0.3 F5000.0 ; Move over to prevent blob squish
G92 E0
G92 E0
G1 F2700 E-5
;LAYER_COUNT:128
;LAYER:0
M107
G0 F6000 X81.274 Y67.84 Z0.28
;TYPE:SKIRT
G1 F2700 E0
G1 F1200 X81.923 Y67.094 E0.04604
G1 X82.886 Y66.196 E0.10735
G1 X83.377 Y65.793 E0.13693
G1 X84.157 Y65.211 E0.18225
G1 X84.924 Y64.735 E0.22428
G1 X85.624 Y64.372 E0.261
G1 X86.135 Y64.13 E0.28733
G1 X87.033 Y63.756 E0.33262
G1 X87.966 Y63.461 E0.37819
G1 X89.026 Y63.231 E0.42869
G1 X89.602 Y63.138 E0.45586
G1 X90.556 Y63.025 E0.5006
G1 X91.135 Y62.999 E0.52758
G1 X92.444 Y62.975 E0.58855
G1 X142.866 Y62.975 E2.93641
G1 X143.679 Y62.987 E2.97427
G1 X144.901 Y63.079 E3.03133
G1 X145.677 Y63.183 E3.06779
G1 X146.635 Y63.359 E3.11314
G1 X147.545 Y63.611 E3.15711
G1 X148.787 Y64.097 E3.21921
G1 X149.31 Y64.34 E3.24607
G1 X150.142 Y64.773 E3.28974
G1 X150.957 Y65.291 E3.33471
G1 X151.45 Y65.656 E3.36327
G1 X151.876 Y65.992 E3.38853
G1 X152.621 Y66.64 E3.43451
G1 X153.547 Y67.632 E3.4977
G1 X153.934 Y68.104 E3.52612
G1 X154.516 Y68.884 E3.57144
G1 X154.992 Y69.651 E3.61347
G1 X155.355 Y70.351 E3.65019
G1 X155.597 Y70.862 E3.67651
G1 X155.971 Y71.76 E3.72181
G1 X156.266 Y72.693 E3.76737
G1 X156.494 Y73.743 E3.81741
G1 X156.587 Y74.315 E3.84439
G1 X156.701 Y75.27 E3.88918
G1 X156.728 Y75.855 E3.91644
G1 X156.752 Y77.16 E3.97722
G1 X156.751 Y107.744 E5.40134
G1 X156.733 Y108.737 E5.44759
G1 X156.676 Y110.086 E5.51046
G1 X156.602 Y112.685 E5.63153
G1 X156.602 Y115.197 E5.7485
G1 X156.674 Y117.715 E5.86579
G1 X156.816 Y120.221 E5.98267
G1 X157.027 Y122.722 E6.09954
G1 X157.31 Y125.206 E6.21595
G1 X157.665 Y127.708 E6.33362
G1 X158.291 Y131.274 E6.50221
G1 X158.439 Y132.557 E6.56235
G1 X158.481 Y133.29 E6.59654
G1 X158.497 Y133.885 E6.62425
G1 X158.5 Y165.012 E8.07366
G1 X158.489 Y165.88 E8.11408
G1 X158.464 Y166.504 E8.14316
G1 X158.388 Y167.394 E8.18475
G1 X158.218 Y168.525 E8.23801
G1 X158.058 Y169.247 E8.27244
G1 X157.955 Y169.651 E8.29185
G1 X157.572 Y170.856 E8.35073
G1 X157.316 Y171.498 E8.38291
G1 X157.138 Y171.91 E8.40381
G1 X156.731 Y172.747 E8.44715
G1 X156.431 Y173.267 E8.4751
G1 X156.053 Y173.881 E8.50868
G1 X155.507 Y174.685 E8.55393
G1 X154.936 Y175.388 E8.5961
G1 X154.484 Y175.896 E8.62777
G1 X153.833 Y176.567 E8.6713
G1 X153.288 Y177.048 E8.70515
G1 X152.827 Y177.429 E8.73299
G1 X151.942 Y178.084 E8.78426
G1 X151.306 Y178.491 E8.81942
G1 X150.947 Y178.705 E8.83888
G1 X150.068 Y179.175 E8.8853
G1 X149.528 Y179.416 E8.91283
G1 X148.913 Y179.671 E8.94383
G1 X148.064 Y179.979 E8.98589
G1 X147.293 Y180.195 E9.02317
G1 X146.633 Y180.351 E9.05475
G1 X145.287 Y180.581 E9.11833
G1 X144.607 Y180.643 E9.15013
G1 X143.687 Y180.691 E9.19303
G1 X142.994 Y180.702 E9.2253
G1 X92.042 Y180.701 E11.59784
G1 X91.311 Y180.691 E11.63188
G1 X90.62 Y180.658 E11.66409
G1 X89.955 Y180.603 E11.69516
G1 X88.673 Y180.418 E11.75548
G1 X87.945 Y180.256 E11.7902
G1 X87.505 Y180.143 E11.81136
G1 X86.614 Y179.872 E11.85472
G1 X86.04 Y179.652 E11.88335
G1 X85.392 Y179.382 E11.91603
G1 X84.514 Y178.969 E11.96122
G1 X83.791 Y178.552 E12.00008
G1 X83.251 Y178.21 E12.02984
G1 X82.332 Y177.556 E12.08237
G1 X81.695 Y177.029 E12.12086
G1 X81.31 Y176.687 E12.14484
G1 X80.619 Y176.016 E12.18969
G1 X80.159 Y175.497 E12.22198
G1 X79.745 Y174.996 E12.25225
G1 X79.165 Y174.225 E12.29717
G1 X78.779 Y173.622 E12.33051
G1 X78.474 Y173.107 E12.35838
G1 X77.886 Y171.967 E12.41811
G1 X77.62 Y171.342 E12.44974
G1 X77.452 Y170.915 E12.4711
G1 X77.104 Y169.866 E12.52257
G1 X76.917 Y169.142 E12.55739
G1 X76.822 Y168.718 E12.57762
G1 X76.631 Y167.576 E12.63153
G1 X76.562 Y166.845 E12.66572
G1 X76.511 Y165.89 E12.71026
G1 X76.5 Y165.196 E12.74258
G1 X76.502 Y134.195 E14.18611
G1 X76.52 Y133.31 E14.22733
G1 X76.564 Y132.526 E14.26389
G1 X76.612 Y132.018 E14.28765
G1 X76.739 Y131.097 E14.33094
G1 X76.931 Y130.05 E14.38051
G1 X77.378 Y127.402 E14.50556
G1 X77.72 Y124.941 E14.62125
G1 X77.997 Y122.452 E14.73787
G1 X78.209 Y119.903 E14.85697
G1 X78.34 Y117.443 E14.97168
G1 X78.407 Y114.876 E15.09125
G1 X78.4 Y112.38 E15.20747
G1 X78.281 Y109.035 E15.36333
G1 X78.248 Y107.269 E15.44558
G1 X78.249 Y76.683 E16.86979
G1 X78.26 Y76.042 E16.89964
G1 X78.351 Y74.828 E16.95633
G1 X78.456 Y74.051 E16.99284
G1 X78.632 Y73.093 E17.03819
G1 X78.884 Y72.182 E17.08221
G1 X79.368 Y70.943 E17.14414
G1 X79.624 Y70.394 E17.17235
G1 X80.041 Y69.593 E17.2144
G1 X80.595 Y68.724 E17.26239
G1 X80.942 Y68.259 E17.2894
G1 X81.274 Y67.84 E17.3143
G0 F6000 X81.576 Y68.102
G1 F1200 X82.196 Y67.387 E17.35836
G1 X83.159 Y66.489 E17.41968
G1 X83.617 Y66.113 E17.44727
G1 X84.368 Y65.551 E17.49095
G1 X85.135 Y65.075 E17.53298
G1 X85.796 Y64.733 E17.56763
G1 X86.289 Y64.499 E17.59305
G1 X87.154 Y64.137 E17.63671
G1 X88.051 Y63.852 E17.68053
G1 X89.09 Y63.626 E17.73005
G1 X89.649 Y63.535 E17.75642
G1 X90.574 Y63.425 E17.79979
G1 X91.142 Y63.399 E17.82627
G1 X92.451 Y63.375 E17.88723
G1 X142.86 Y63.375 E20.23449
G1 X143.649 Y63.386 E20.27123
G1 X144.871 Y63.478 E20.32829
G1 X145.605 Y63.577 E20.36278
G1 X146.529 Y63.745 E20.40651
G1 X147.4 Y63.984 E20.44857
G1 X148.619 Y64.46 E20.5095
G1 X149.125 Y64.695 E20.53548
G1 X149.957 Y65.128 E20.57915
G1 X150.719 Y65.613 E20.62121
G1 X151.203 Y65.971 E20.64925
G1 X151.614 Y66.294 E20.67359
G1 X152.329 Y66.913 E20.71762
G1 X153.238 Y67.886 E20.77963
G1 X153.614 Y68.344 E20.80722
G1 X154.176 Y69.095 E20.8509
G1 X154.652 Y69.862 E20.89293
G1 X154.994 Y70.523 E20.92758
G1 X155.228 Y71.016 E20.95299
G1 X155.59 Y71.881 E20.99666
G1 X155.875 Y72.778 E21.04048
G1 X156.099 Y73.808 E21.08957
G1 X156.19 Y74.363 E21.11575
G1 X156.301 Y75.289 E21.15918
G1 X156.328 Y75.862 E21.18589
G1 X156.352 Y77.16 E21.24634
G1 X156.351 Y107.737 E22.67014
G1 X156.333 Y108.72 E22.71592
G1 X156.276 Y110.069 E22.77879
G1 X156.202 Y112.674 E22.90014
G1 X156.202 Y115.197 E23.01762
G1 X156.274 Y117.726 E23.13543
G1 X156.417 Y120.255 E23.25337
G1 X156.629 Y122.756 E23.37025
G1 X156.914 Y125.262 E23.48769
G1 X157.271 Y127.777 E23.60597
G1 X157.897 Y131.343 E23.77456
G1 X158.04 Y132.58 E23.83254
G1 X158.081 Y133.301 E23.86617
G1 X158.097 Y133.885 E23.89338
G1 X158.1 Y165.007 E25.34255
G1 X158.089 Y165.864 E25.38245
G1 X158.065 Y166.47 E25.41069
G1 X157.992 Y167.335 E25.45112
G1 X157.822 Y168.466 E25.50437
G1 X157.67 Y169.148 E25.53691
G1 X157.567 Y169.552 E25.55632
G1 X157.2 Y170.708 E25.6128
G1 X156.949 Y171.339 E25.64442
G1 X156.778 Y171.735 E25.6645
G1 X156.371 Y172.572 E25.70784
G1 X156.09 Y173.058 E25.73398
G1 X155.722 Y173.657 E25.76672
G1 X155.196 Y174.433 E25.81037
G1 X154.637 Y175.122 E25.85168
G1 X154.197 Y175.617 E25.88252
G1 X153.546 Y176.288 E25.92605
G1 X153.033 Y176.74 E25.95789
G1 X152.589 Y177.107 E25.98471
G1 X151.704 Y177.762 E26.03598
G1 X151.101 Y178.147 E26.0693
G1 X150.742 Y178.361 E26.08876
G1 X149.905 Y178.81 E26.13299
G1 X149.375 Y179.047 E26.16002
G1 X148.777 Y179.295 E26.19016
G1 X147.928 Y179.603 E26.23222
G1 X147.2 Y179.806 E26.26741
G1 X146.565 Y179.957 E26.2978
G1 X145.25 Y180.183 E26.35993
G1 X144.586 Y180.244 E26.39098
G1 X143.681 Y180.291 E26.43318
G1 X142.994 Y180.302 E26.46517
G1 X92.048 Y180.301 E28.83743
G1 X91.33 Y180.291 E28.87087
G1 X90.652 Y180.259 E28.90247
G1 X90.012 Y180.207 E28.93237
G1 X88.73 Y180.022 E28.99269
G1 X88.045 Y179.869 E29.02537
G1 X87.621 Y179.76 E29.04575
G1 X86.73 Y179.489 E29.08912
G1 X86.194 Y179.283 E29.11586
G1 X85.562 Y179.02 E29.14773
G1 X84.714 Y178.622 E29.19135
G1 X84.005 Y178.214 E29.22944
G1 X83.483 Y177.884 E29.2582
G1 X82.564 Y177.23 E29.31072
G1 X81.96 Y176.73 E29.34723
G1 X81.588 Y176.4 E29.37039
G1 X80.918 Y175.751 E29.41382
G1 X80.467 Y175.242 E29.44549
G1 X80.064 Y174.755 E29.47492
G1 X79.502 Y174.009 E29.51841
G1 X79.123 Y173.418 E29.55111
G1 X78.818 Y172.903 E29.57898
G1 X78.254 Y171.81 E29.63625
G1 X77.992 Y171.196 E29.66733
G1 X77.832 Y170.789 E29.68769
G1 X77.484 Y169.74 E29.73916
G1 X77.307 Y169.055 E29.7721
G1 X77.217 Y168.652 E29.79133
G1 X77.026 Y167.51 E29.84525
G1 X76.961 Y166.824 E29.87733
G1 X76.911 Y165.884 E29.92116
G1 X76.9 Y165.196 E29.9532
G1 X76.902 Y134.203 E31.39637
G1 X76.919 Y133.332 E31.43693
G1 X76.962 Y132.563 E31.4728
G1 X77.008 Y132.072 E31.49576
G1 X77.132 Y131.169 E31.5382
G1 X77.324 Y130.122 E31.58777
G1 X77.772 Y127.469 E31.71305
G1 X78.118 Y124.985 E31.82983
G1 X78.395 Y122.496 E31.94645
G1 X78.607 Y119.936 E32.06606
G1 X78.74 Y117.453 E32.18184
G1 X78.807 Y114.886 E32.30141
G1 X78.8 Y112.379 E32.41815
G1 X78.681 Y109.027 E32.57433
G1 X78.648 Y107.269 E32.65621
G1 X78.649 Y76.689 E34.08014
G1 X78.659 Y76.072 E34.10887
G1 X78.75 Y74.858 E34.16556
G1 X78.849 Y74.123 E34.2001
G1 X79.018 Y73.199 E34.24383
G1 X79.257 Y72.328 E34.28589
G1 X79.741 Y71.089 E34.34783
G1 X79.979 Y70.579 E34.37404
G1 X80.396 Y69.778 E34.41609
G1 X80.916 Y68.963 E34.4611
G1 X81.256 Y68.507 E34.48759
G1 X81.576 Y68.102 E34.51162
G0 F6000 X81.879 Y68.363
G1 F1200 X82.469 Y67.679 E34.55368
G1 X83.413 Y66.798 E34.61381
G1 X83.857 Y66.433 E34.64057
G1 X84.579 Y65.891 E34.68261
G1 X85.346 Y65.415 E34.72465
G1 X85.967 Y65.094 E34.7572
G1 X86.444 Y64.868 E34.78177
G1 X87.276 Y64.518 E34.8238
G1 X88.136 Y64.243 E34.86585
G1 X89.155 Y64.021 E34.91441
G1 X89.696 Y63.932 E34.93994
G1 X90.593 Y63.825 E34.982
G1 X91.149 Y63.799 E35.00792
G1 X92.458 Y63.775 E35.06888
G1 X142.855 Y63.775 E37.41558
G1 X143.619 Y63.785 E37.45116
G1 X144.841 Y63.877 E37.50822
G1 X145.534 Y63.971 E37.54078
G1 X146.423 Y64.131 E37.58284
G1 X147.294 Y64.37 E37.6249
G1 X148.451 Y64.823 E37.68276
G1 X148.941 Y65.05 E37.7079
G1 X149.742 Y65.465 E37.74991
G1 X150.504 Y65.95 E37.79197
G1 X150.956 Y66.285 E37.81817
G1 X151.353 Y66.597 E37.84168
G1 X152.037 Y67.186 E37.88371
G1 X152.929 Y68.14 E37.94453
G1 X153.294 Y68.584 E37.97129
G1 X153.836 Y69.306 E38.01333
G1 X154.312 Y70.073 E38.05536
G1 X154.633 Y70.694 E38.08791
G1 X154.859 Y71.171 E38.11249
G1 X155.209 Y72.003 E38.15452
G1 X155.484 Y72.863 E38.19656
G1 X155.704 Y73.873 E38.2447
G1 X155.793 Y74.411 E38.27009
G1 X155.901 Y75.308 E38.31216
G1 X155.928 Y75.869 E38.33831
G1 X155.952 Y77.16 E38.39843
G1 X155.951 Y107.73 E39.8219
G1 X155.933 Y108.703 E39.86722
G1 X155.876 Y110.052 E39.93009
G1 X155.802 Y112.663 E40.05172
G1 X155.802 Y115.197 E40.16971
G1 X155.874 Y117.737 E40.28803
G1 X156.018 Y120.289 E40.40705
G1 X156.231 Y122.79 E40.52393
G1 X156.518 Y125.318 E40.6424
G1 X156.877 Y127.846 E40.76129
G1 X157.503 Y131.412 E40.92988
G1 X157.641 Y132.602 E40.98566
G1 X157.681 Y133.312 E41.01878
G1 X157.697 Y133.885 E41.04547
G1 X157.7 Y165.002 E42.49441
G1 X157.689 Y165.848 E42.5338
G1 X157.666 Y166.437 E42.56125
G1 X157.596 Y167.276 E42.60045
G1 X157.426 Y168.407 E42.65371
G1 X157.282 Y169.049 E42.68435
G1 X157.179 Y169.453 E42.70376
G1 X156.828 Y170.56 E42.75784
G1 X156.582 Y171.18 E42.7889
G1 X156.418 Y171.56 E42.80817
G1 X156.024 Y172.372 E42.85019
G1 X155.749 Y172.849 E42.87583
G1 X155.391 Y173.433 E42.90773
G1 X154.885 Y174.181 E42.94978
G1 X154.326 Y174.87 E42.99109
G1 X153.91 Y175.339 E43.02028
G1 X153.281 Y175.988 E43.06237
G1 X152.778 Y176.432 E43.09361
G1 X152.351 Y176.785 E43.11941
G1 X151.466 Y177.44 E43.17068
G1 X150.896 Y177.803 E43.20214
G1 X150.537 Y178.017 E43.2216
G1 X149.741 Y178.445 E43.26369
G1 X149.222 Y178.678 E43.29018
G1 X148.641 Y178.919 E43.31947
G1 X147.792 Y179.227 E43.36152
G1 X147.107 Y179.417 E43.39462
G1 X146.497 Y179.563 E43.42383
G1 X145.213 Y179.785 E43.4845
G1 X144.565 Y179.845 E43.51481
G1 X143.675 Y179.891 E43.5563
G1 X142.994 Y179.902 E43.58802
G1 X92.054 Y179.901 E45.96
G1 X91.349 Y179.891 E45.99283
G1 X90.684 Y179.86 E46.02383
G1 X90.069 Y179.811 E46.05255
G1 X88.787 Y179.626 E46.11287
G1 X88.144 Y179.481 E46.14356
G1 X87.737 Y179.377 E46.16312
G1 X86.873 Y179.115 E46.20516
G1 X86.348 Y178.914 E46.23134
G1 X85.732 Y178.658 E46.2624
G1 X84.914 Y178.275 E46.30446
G1 X84.205 Y177.867 E46.34255
G1 X83.715 Y177.558 E46.36952
G1 X82.796 Y176.904 E46.42204
G1 X82.225 Y176.431 E46.45657
G1 X81.866 Y176.113 E46.4789
G1 X81.217 Y175.485 E46.52095
G1 X80.775 Y174.987 E46.55196
G1 X80.383 Y174.514 E46.58056
G1 X79.839 Y173.793 E46.62262
G1 X79.467 Y173.214 E46.65467
G1 X79.173 Y172.719 E46.68148
G1 X78.622 Y171.653 E46.73735
G1 X78.364 Y171.049 E46.76793
G1 X78.212 Y170.663 E46.78725
G1 X77.864 Y169.614 E46.83872
G1 X77.697 Y168.967 E46.86983
G1 X77.611 Y168.586 E46.88802
G1 X77.424 Y167.472 E46.94062
G1 X77.36 Y166.803 E46.97191
G1 X77.311 Y165.878 E47.01504
G1 X77.3 Y165.196 E47.0468
G1 X77.302 Y134.21 E48.48964
G1 X77.318 Y133.354 E48.52951
G1 X77.36 Y132.6 E48.56467
G1 X77.404 Y132.127 E48.58679
G1 X77.526 Y131.241 E48.62844
G1 X77.717 Y130.194 E48.67799
G1 X78.166 Y127.536 E48.80351
G1 X78.516 Y125.029 E48.92138
G1 X78.793 Y122.54 E49.038
G1 X79.005 Y119.969 E49.15812
G1 X79.14 Y117.463 E49.27498
G1 X79.207 Y114.896 E49.39455
G1 X79.2 Y112.378 E49.5118
G1 X79.081 Y109.019 E49.66831
G1 X79.048 Y107.269 E49.74981
G1 X79.049 Y76.695 E51.17346
G1 X79.058 Y76.102 E51.20108
G1 X79.149 Y74.888 E51.25776
G1 X79.243 Y74.194 E51.29037
G1 X79.404 Y73.305 E51.33244
G1 X79.643 Y72.434 E51.3745
G1 X80.104 Y71.258 E51.43332
G1 X80.334 Y70.764 E51.45869
G1 X80.751 Y69.963 E51.50074
G1 X81.237 Y69.202 E51.54278
G1 X81.57 Y68.755 E51.56874
G1 X81.879 Y68.363 E51.59198
G1 F2700 E46.59198
;MESH:ElectronicsBox_TopCover.stl
G0 F6000 X89.805 Y82.184
G0 X96.298 Y82.183
G0 X96.758 Y82.61
G0 X96.972 Y82.982
;TYPE:WALL-INNER
G1 F2700 E51.59198
G1 F1021.3 X96.972 Y82.441 E51.62158
G1 X96.725 Y82.299 E51.63717
G1 X96.571 Y82.293 E51.6456
G1 X96.45 Y82.342 E51.65274
G1 X96.37 Y82.511 E51.66297
G1 X96.506 Y82.711 E51.67621
G1 X96.972 Y82.982 E51.7057
G0 F6000 X97.48 Y83.716
;TYPE:WALL-OUTER
G1 F946.7 X97.992 Y84.013 E51.74064
G0 F6000 X97.48 Y83.716
G1 F1030 X97.395 Y83.496 E51.75343
G1 F1165 X97.407 Y82.246 E51.81338
G1 F1200 X97.187 Y82.051 E51.82707
G1 X96.842 Y81.868 E51.84526
G1 X96.517 Y81.855 E51.8604
G1 X96.306 Y81.916 E51.87063
G1 X96.148 Y82.02 E51.87944
G1 X95.978 Y82.245 E51.89257
G1 X95.918 Y82.554 E51.90723
G1 X96.009 Y82.781 E51.91861
G1 X96.161 Y82.97 E51.92991
G1 X96.382 Y83.142 E51.94295
G1 F1165 X97.205 Y83.605 E51.98824
G1 F1030 X97.48 Y83.716 E52.00433
G1 F2700 E47.00433
G0 F6000 X97.158 Y83.305
G0 X97.189 Y82.342
G0 X98.632 Y82.171
G0 X99.072 Y81.41
G0 X98.86 Y81.779
;TYPE:WALL-INNER
G1 F2700 E52.00433
G1 F1014.8 X99.326 Y81.509 E52.03398
G1 X99.345 Y81.308 E52.0451
G1 X99.218 Y81.05 E52.06093
G1 X99.118 Y80.999 E52.06711
G1 X98.99 Y81 E52.07416
G1 X98.935 Y81.044 E52.07804
G1 X98.86 Y81.242 E52.0897
G1 X98.86 Y81.779 E52.11926
G0 F6000 X98.477 Y82.589
;TYPE:WALL-OUTER
G1 F1030 X98.625 Y82.405 E52.13207
G1 F1165 X99.74 Y81.774 E52.19352
G1 F1200 X99.788 Y81.256 E52.21774
G1 X99.682 Y80.939 E52.23331
G1 X99.521 Y80.729 E52.24563
G1 X99.188 Y80.561 E52.263
G1 X98.9 Y80.566 E52.27641
G1 X98.744 Y80.63 E52.28426
G1 X98.567 Y80.79 E52.29537
G1 X98.46 Y81.064 E52.30907
G1 X98.424 Y81.359 E52.32291
G1 F1165 X98.436 Y82.296 E52.36785
G1 F1030 X98.477 Y82.589 E52.3839
G1 F944.9 X98.477 Y83.175 E52.41855
G1 F2700 E47.41855
G0 F6000 X100.39 Y82.808
G0 X101.321 Y82.793
G0 X101.309 Y83.076
;TYPE:WALL-INNER
G1 F2700 E52.41855
G1 F1016.9 X101.491 Y82.993 E52.42954
G1 F1019.1 X101.626 Y82.839 E52.44077
G1 X101.65 Y82.653 E52.45106
G1 X101.602 Y82.551 E52.45724
G1 X101.501 Y82.514 E52.46313
G1 F1016.9 X101.174 Y82.616 E52.48196
G1 F1014.8 X100.843 Y82.807 E52.503
