;FLAVOR:Marlin
;TIME:6094
;Filament used: 4.98234m
;Layer height: 0.2
;MINX:67.847
;MINY:87.848
;MINZ:0.2
;MAXX:167.153
;MAXY:147.153
;MAXZ:10
;TARGET_MACHINE.NAME:Creality Ender-3
;Generated with Cura_SteamEngine 5.6.0
M140 S50
M105
M190 S50
M104 S200
M105
M109 S200
M82 ;absolute extrusion mode
; Ender 3 Custom Start G-code
G92 E0 ; Reset Extruder
G28 ; Home all axes
G1 Z2.0 F3000 ; Move Z Axis up little to prevent scratching of Heat Bed
G1 X0.1 Y20 Z0.3 F5000.0 ; Move to start position
G1 X0.1 Y200.0 Z0.3 F1500.0 E15 ; Draw the first line
G1 X0.4 Y200.0 Z0.3 F5000.0 ; Move to side a little
G1 X0.4 Y20 Z0.3 F1500.0 E30 ; Draw the second line
G92 E0 ; Reset Extruder
G1 Z2.0 F3000 ; Move Z Axis up little to prevent scratching of Heat Bed
G1 X5 Y20 Z0.3 F5000.0 ; Move over to prevent blob squish
G92 E0
G92 E0
G1 F2700 E-5
;LAYER_COUNT:50
;LAYER:0
M107
G0 F6000 X72.597 Y90.646 Z0.2
;TYPE:SKIRT
G1 F2700 E0
G1 F1200 X73.359 Y90.078 E0.03161
G1 X73.935 Y89.712 E0.05431
G1 X74.326 Y89.48 E0.06943
G1 X75.154 Y89.039 E0.10063
G1 X76.018 Y88.671 E0.13187
G1 X77.315 Y88.269 E0.17703
G1 X77.741 Y88.166 E0.19161
G1 X78.627 Y87.992 E0.22164
G1 X79.989 Y87.869 E0.26712
G1 X80.648 Y87.855 E0.28905
G1 X153.852 Y87.848 E2.72382
G1 X154.738 Y87.861 E2.75329
G1 X155.718 Y87.92 E2.78595
G1 X155.988 Y87.95 E2.79498
G1 X156.974 Y88.103 E2.82817
G1 X158.073 Y88.384 E2.8659
G1 X158.434 Y88.498 E2.87849
G1 X159.351 Y88.833 E2.91096
G1 X160.277 Y89.269 E2.945
G1 X160.622 Y89.452 E2.95799
G1 X161.4 Y89.91 E2.98802
G1 X162.461 Y90.687 E3.03176
G1 X162.712 Y90.896 E3.04262
G1 X163.406 Y91.529 E3.07386
G1 X164.126 Y92.314 E3.10929
G1 X164.332 Y92.562 E3.12002
G1 X164.93 Y93.357 E3.1531
G1 X165.475 Y94.238 E3.18756
G1 X165.623 Y94.506 E3.19774
G1 X166.026 Y95.314 E3.22777
G1 X166.328 Y96.062 E3.2546
G1 X166.46 Y96.427 E3.26751
G1 X166.748 Y97.357 E3.29989
G1 X166.941 Y98.24 E3.32996
G1 X167.068 Y99.167 E3.36108
G1 X167.141 Y100.273 E3.39794
G1 X167.153 Y101.178 E3.42804
G1 X167.151 Y133.976 E4.51891
G1 X167.139 Y134.726 E4.54386
G1 X167.086 Y135.65 E4.57464
G1 X167.056 Y135.941 E4.58437
G1 X166.925 Y136.834 E4.61439
G1 X166.617 Y138.072 E4.65682
G1 X166.502 Y138.436 E4.66952
G1 X166.167 Y139.352 E4.70196
G1 X165.736 Y140.269 E4.73566
G1 X165.555 Y140.609 E4.74847
G1 X165.076 Y141.422 E4.77985
G1 X164.343 Y142.425 E4.82117
G1 X164.145 Y142.665 E4.83152
G1 X163.472 Y143.405 E4.86479
G1 X162.608 Y144.191 E4.90364
G1 X162.326 Y144.419 E4.9157
G1 X161.543 Y144.996 E4.94805
G1 X160.712 Y145.503 E4.98043
G1 X160.46 Y145.642 E4.99
G1 X159.65 Y146.042 E5.02005
G1 X158.917 Y146.336 E5.04631
G1 X158.547 Y146.469 E5.05939
G1 X157.618 Y146.755 E5.09172
G1 X156.735 Y146.946 E5.12177
G1 X155.799 Y147.071 E5.15318
G1 X154.724 Y147.141 E5.18901
G1 X153.821 Y147.153 E5.21904
G1 X80.995 Y147.151 E7.64125
G1 X80.264 Y147.139 E7.66556
G1 X79.305 Y147.082 E7.69752
G1 X79.013 Y147.051 E7.70728
G1 X78.12 Y146.916 E7.73732
G1 X76.927 Y146.616 E7.77824
G1 X76.566 Y146.502 E7.79083
G1 X75.649 Y146.167 E7.8233
G1 X74.723 Y145.731 E7.85734
G1 X74.378 Y145.548 E7.87033
G1 X73.566 Y145.068 E7.9017
G1 X72.569 Y144.337 E7.94282
G1 X72.298 Y144.112 E7.95454
G1 X71.573 Y143.451 E7.98717
G1 X70.818 Y142.62 E8.02451
G1 X70.604 Y142.357 E8.03579
G1 X70.064 Y141.633 E8.06583
G1 X69.543 Y140.791 E8.09876
G1 X69.392 Y140.521 E8.10905
G1 X68.974 Y139.685 E8.14014
G1 X68.664 Y138.916 E8.16771
G1 X68.532 Y138.549 E8.18069
G1 X68.246 Y137.62 E8.21302
G1 X68.055 Y136.737 E8.24306
G1 X67.93 Y135.814 E8.27404
G1 X67.859 Y134.727 E8.31027
G1 X67.847 Y133.821 E8.34041
G1 X67.851 Y101.007 E9.43181
G1 X67.868 Y100.156 E9.46012
G1 X67.885 Y99.778 E9.4727
G1 X67.98 Y98.762 E9.50664
G1 X68.21 Y97.578 E9.54676
G1 X68.317 Y97.16 E9.56111
G1 X68.592 Y96.256 E9.59254
G1 X69.109 Y95.031 E9.63676
G1 X69.25 Y94.748 E9.64728
G1 X69.704 Y93.932 E9.67834
G1 X70.128 Y93.291 E9.7039
G1 X70.371 Y92.951 E9.7178
G1 X70.951 Y92.213 E9.74902
G1 X71.642 Y91.479 E9.78255
G1 X72.342 Y90.854 E9.81376
G1 X72.597 Y90.646 E9.8247
G0 F6000 X72.836 Y90.967
G1 F1200 X73.598 Y90.399 E9.85631
G1 X74.139 Y90.056 E9.87762
G1 X74.515 Y89.833 E9.89216
G1 X75.311 Y89.407 E9.92219
G1 X76.175 Y89.039 E9.95342
G1 X77.409 Y88.658 E9.99638
G1 X77.818 Y88.559 E10.01037
G1 X78.704 Y88.385 E10.0404
G1 X79.998 Y88.269 E10.08362
G1 X80.648 Y88.255 E10.10524
G1 X153.846 Y88.248 E12.53982
G1 X154.714 Y88.26 E12.56869
G1 X155.675 Y88.318 E12.60071
G1 X155.927 Y88.345 E12.60914
G1 X156.875 Y88.491 E12.64104
G1 X157.953 Y88.766 E12.67804
G1 X158.297 Y88.874 E12.69004
G1 X159.181 Y89.195 E12.72132
G1 X160.09 Y89.623 E12.75473
G1 X160.419 Y89.797 E12.76711
G1 X161.197 Y90.255 E12.79714
G1 X162.205 Y90.995 E12.83873
G1 X162.442 Y91.192 E12.84898
G1 X163.136 Y91.825 E12.88022
G1 X163.818 Y92.57 E12.91382
G1 X164.024 Y92.818 E12.92454
G1 X164.59 Y93.568 E12.95579
G1 X165.125 Y94.432 E12.98959
G1 X165.265 Y94.685 E12.99921
G1 X165.668 Y95.493 E13.02924
G1 X165.952 Y96.199 E13.05455
G1 X166.078 Y96.546 E13.06683
G1 X166.357 Y97.442 E13.09804
G1 X166.55 Y98.325 E13.1281
G1 X166.669 Y99.193 E13.15724
G1 X166.741 Y100.278 E13.19341
G1 X166.753 Y101.178 E13.22334
G1 X166.751 Y133.97 E14.31401
G1 X166.74 Y134.703 E14.33839
G1 X166.688 Y135.609 E14.36858
G1 X166.66 Y135.883 E14.37774
G1 X166.529 Y136.776 E14.40776
G1 X166.235 Y137.952 E14.44807
G1 X166.126 Y138.299 E14.46017
G1 X165.805 Y139.182 E14.49142
G1 X165.383 Y140.081 E14.52445
G1 X165.21 Y140.406 E14.5367
G1 X164.731 Y141.219 E14.56808
G1 X164.034 Y142.17 E14.6073
G1 X163.836 Y142.41 E14.61765
G1 X163.203 Y143.109 E14.64901
G1 X162.356 Y143.88 E14.68711
G1 X162.088 Y144.097 E14.69858
G1 X161.334 Y144.655 E14.72977
G1 X160.519 Y145.153 E14.76154
G1 X160.283 Y145.283 E14.7705
G1 X159.473 Y145.683 E14.80055
G1 X158.782 Y145.96 E14.82531
G1 X158.429 Y146.087 E14.83779
G1 X157.533 Y146.364 E14.86898
G1 X156.65 Y146.555 E14.89903
G1 X155.773 Y146.672 E14.92846
G1 X154.719 Y146.741 E14.96359
G1 X153.821 Y146.753 E14.99346
G1 X81.001 Y146.751 E17.41546
G1 X80.288 Y146.74 E17.43918
G1 X79.347 Y146.684 E17.47053
G1 X79.073 Y146.655 E17.4797
G1 X78.18 Y146.52 E17.50973
G1 X77.047 Y146.234 E17.5486
G1 X76.703 Y146.126 E17.56059
G1 X75.819 Y145.805 E17.59187
G1 X74.91 Y145.377 E17.62529
G1 X74.581 Y145.203 E17.63767
G1 X73.803 Y144.745 E17.6677
G1 X72.806 Y144.014 E17.70881
G1 X72.567 Y143.816 E17.71914
G1 X71.869 Y143.182 E17.7505
G1 X71.128 Y142.367 E17.78714
G1 X70.925 Y142.118 E17.79782
G1 X70.385 Y141.394 E17.82786
G1 X69.892 Y140.596 E17.85906
G1 X69.75 Y140.342 E17.86874
G1 X69.332 Y139.506 E17.89983
G1 X69.04 Y138.781 E17.92582
G1 X68.914 Y138.431 E17.93819
G1 X68.637 Y137.535 E17.96939
G1 X68.446 Y136.652 E17.99944
G1 X68.329 Y135.788 E18.02843
G1 X68.259 Y134.722 E18.06397
G1 X68.247 Y133.821 E18.09394
G1 X68.251 Y101.015 E19.18507
G1 X68.268 Y100.174 E19.21305
G1 X68.285 Y99.796 E19.22563
G1 X68.373 Y98.838 E19.25763
G1 X68.603 Y97.654 E19.29774
G1 X68.7 Y97.276 E19.31072
G1 X68.961 Y96.412 E19.34074
G1 X69.478 Y95.187 E19.38497
G1 X69.6 Y94.942 E19.39407
G1 X70.054 Y94.126 E19.42513
G1 X70.453 Y93.524 E19.44915
G1 X70.686 Y93.198 E19.46248
G1 X71.243 Y92.487 E19.49252
G1 X71.909 Y91.777 E19.52489
G1 X72.595 Y91.164 E19.55549
G1 X72.836 Y90.967 E19.56585
G0 F6000 X73.089 Y91.277
G1 F1200 X73.812 Y90.737 E19.59586
G1 X74.343 Y90.4 E19.61678
G1 X74.704 Y90.186 E19.63074
G1 X75.5 Y89.76 E19.66076
G1 X76.331 Y89.407 E19.69079
G1 X77.503 Y89.047 E19.73157
G1 X77.895 Y88.952 E19.74499
G1 X78.781 Y88.778 E19.77502
G1 X80.007 Y88.669 E19.81596
G1 X80.648 Y88.655 E19.83728
G1 X153.841 Y88.648 E22.27169
G1 X154.69 Y88.659 E22.29993
G1 X155.632 Y88.716 E22.33132
G1 X155.884 Y88.743 E22.33975
G1 X156.776 Y88.879 E22.36976
G1 X157.834 Y89.148 E22.40607
G1 X158.161 Y89.25 E22.41746
G1 X159.011 Y89.557 E22.44752
G1 X159.903 Y89.976 E22.4803
G1 X160.216 Y90.142 E22.49208
G1 X160.994 Y90.6 E22.52211
G1 X161.95 Y91.303 E22.56158
G1 X162.173 Y91.488 E22.57121
G1 X162.841 Y92.095 E22.60123
G1 X163.51 Y92.825 E22.63417
G1 X163.705 Y93.06 E22.64433
G1 X164.25 Y93.779 E22.67433
G1 X164.775 Y94.626 E22.70748
G1 X164.907 Y94.864 E22.71653
G1 X165.31 Y95.672 E22.74656
G1 X165.576 Y96.335 E22.77032
G1 X165.696 Y96.666 E22.78203
G1 X165.966 Y97.527 E22.81204
G1 X166.159 Y98.41 E22.8421
G1 X166.27 Y99.22 E22.8693
G1 X166.341 Y100.283 E22.90473
G1 X166.353 Y101.178 E22.9345
G1 X166.351 Y133.964 E24.02497
G1 X166.341 Y134.68 E24.04879
G1 X166.29 Y135.569 E24.0784
G1 X166.264 Y135.825 E24.08696
G1 X166.133 Y136.718 E24.11698
G1 X165.853 Y137.833 E24.15522
G1 X165.75 Y138.163 E24.16671
G1 X165.443 Y139.012 E24.19674
G1 X165.029 Y139.894 E24.22915
G1 X164.865 Y140.204 E24.24081
G1 X164.408 Y140.983 E24.27085
G1 X163.725 Y141.916 E24.30931
G1 X163.539 Y142.142 E24.31904
G1 X162.934 Y142.813 E24.34909
G1 X162.103 Y143.57 E24.38648
G1 X161.85 Y143.776 E24.39733
G1 X161.125 Y144.314 E24.42736
G1 X160.326 Y144.803 E24.45852
G1 X160.106 Y144.924 E24.46687
G1 X159.296 Y145.324 E24.49692
G1 X158.646 Y145.584 E24.5202
G1 X158.31 Y145.705 E24.53208
G1 X157.448 Y145.973 E24.5621
G1 X156.565 Y146.164 E24.59215
G1 X155.747 Y146.273 E24.6196
G1 X154.714 Y146.341 E24.65403
G1 X153.821 Y146.353 E24.68373
G1 X81.007 Y146.351 E27.10554
G1 X80.312 Y146.341 E27.12865
G1 X79.389 Y146.286 E27.15941
G1 X79.133 Y146.259 E27.16797
G1 X78.24 Y146.124 E27.19801
G1 X77.166 Y145.852 E27.23486
G1 X76.839 Y145.75 E27.24625
G1 X75.989 Y145.443 E27.27631
G1 X75.097 Y145.024 E27.30909
G1 X74.784 Y144.858 E27.32087
G1 X74.006 Y144.4 E27.3509
G1 X73.061 Y143.706 E27.3899
G1 X72.835 Y143.519 E27.39965
G1 X72.165 Y142.913 E27.4297
G1 X71.438 Y142.114 E27.46563
G1 X71.246 Y141.879 E27.47572
G1 X70.706 Y141.155 E27.50576
G1 X70.241 Y140.401 E27.53523
G1 X70.108 Y140.163 E27.54429
G1 X69.703 Y139.356 E27.57432
G1 X69.416 Y138.645 E27.59983
G1 X69.296 Y138.312 E27.6116
G1 X69.028 Y137.45 E27.64162
G1 X68.837 Y136.567 E27.67167
G1 X68.728 Y135.762 E27.69869
G1 X68.659 Y134.717 E27.73352
G1 X68.647 Y133.821 E27.76333
G1 X68.651 Y101.023 E28.85419
G1 X68.668 Y100.192 E28.88184
G1 X68.685 Y99.814 E28.89442
G1 X68.766 Y98.914 E28.92448
G1 X68.991 Y97.753 E28.96381
G1 X69.083 Y97.392 E28.9762
G1 X69.344 Y96.528 E29.00622
G1 X69.836 Y95.365 E29.04822
G1 X69.95 Y95.136 E29.05673
G1 X70.388 Y94.347 E29.08674
G1 X70.779 Y93.756 E29.11031
G1 X71.001 Y93.445 E29.12302
G1 X71.558 Y92.734 E29.15306
G1 X72.175 Y92.075 E29.18309
G1 X72.848 Y91.474 E29.2131
G1 X73.089 Y91.277 E29.22345
G1 F2700 E24.22345
;MESH:3d_Printing_Test2.stl
G0 F6000 X79.263 Y99.807
G0 X80.169 Y100.514
G0 X80.45 Y134.38
G0 X80.493 Y134.651
;TYPE:WALL-INNER
G1 F2700 E29.22345
G1 F1200 X154.504 Y134.651 E31.68507
G1 X154.603 Y134.603 E31.68873
G1 X154.651 Y134.507 E31.6923
G1 X154.652 Y100.496 E32.82351
G1 X154.602 Y100.398 E32.82717
G1 X154.507 Y100.35 E32.83071
G1 X80.516 Y100.349 E35.29166
G1 X80.421 Y100.38 E35.29498
G1 X80.35 Y100.542 E35.30086
G1 X80.349 Y134.504 E36.43044
G1 X80.397 Y134.603 E36.4341
G1 X80.493 Y134.651 E36.43767
G0 F6000 X80.449 Y135.056
;TYPE:WALL-OUTER
G1 F1200 X154.548 Y135.056 E38.90222
G1 X154.738 Y134.999 E38.90881
G1 X154.891 Y134.889 E38.91508
G1 X154.998 Y134.738 E38.92124
G1 X155.056 Y134.551 E38.92775
G1 X155.056 Y100.452 E40.06189
G1 X154.999 Y100.263 E40.06845
G1 X154.888 Y100.11 E40.07474
G1 X154.737 Y100.002 E40.08091
G1 X154.551 Y99.945 E40.08738
G1 X80.455 Y99.949 E42.55183
G1 X80.182 Y100.035 E42.56135
G1 X80.013 Y100.253 E42.57052
G1 X79.95 Y100.491 E42.57871
G1 X79.944 Y134.548 E43.71145
G1 X80.001 Y134.738 E43.71805
G1 X80.111 Y134.891 E43.72432
G1 X80.262 Y134.998 E43.73047
G1 X80.449 Y135.056 E43.73698
G1 F2700 E38.73698
G0 F6000 X80.618 Y134.381
G0 X154.551 Y134.291
G0 X154.291 Y134.291
;TYPE:SKIN
G1 F2700 E43.73698
G1 F1200 X80.71 Y134.29 E46.1843
G1 X80.715 Y100.71 E47.30117
G1 X154.291 Y100.71 E49.74832
G1 X154.291 Y134.291 E50.86523
G1 F2700 E45.86523
G0 F6000 X154.551 Y134.291
G0 X154.551 Y101.481
G0 X154.09 Y101.481
G1 F2700 E50.86523
G1 F1200 X153.518 Y100.909 E50.89213
G0 F6000 X152.952 Y100.909
G1 F1200 X154.09 Y102.047 E50.94566
G0 F6000 X154.09 Y102.613
G1 F1200 X152.387 Y100.909 E51.02579
G0 F6000 X151.821 Y100.909
G1 F1200 X154.09 Y103.178 E51.13252
G0 F6000 X154.09 Y103.744
G1 F1200 X151.255 Y100.909 E51.26587
G0 F6000 X150.69 Y100.909
G1 F1200 X154.09 Y104.31 E51.42581
G0 F6000 X154.09 Y104.875
G1 F1200 X150.124 Y100.909 E51.61236
G0 F6000 X149.558 Y100.909
G1 F1200 X154.09 Y105.441 E51.82553
G0 F6000 X154.09 Y106.007
G1 F1200 X148.993 Y100.909 E52.06531
G0 F6000 X148.427 Y100.909
G1 F1200 X154.09 Y106.573 E52.3317
G0 F6000 X154.09 Y107.138
G1 F1200 X147.861 Y100.909 E52.62469
G0 F6000 X147.295 Y100.909
G1 F1200 X154.09 Y107.704 E52.94431
G0 F6000 X154.09 Y108.27
G1 F1200 X146.73 Y100.909 E53.29052
G0 F6000 X146.164 Y100.909
G1 F1200 X154.09 Y108.835 E53.66334
G0 F6000 X154.09 Y109.401
G1 F1200 X145.598 Y100.909 E54.06278
G0 F6000 X145.033 Y100.909
G1 F1200 X154.09 Y109.967 E54.48881
G0 F6000 X154.09 Y110.532
G1 F1200 X144.467 Y100.909 E54.94145
G0 F6000 X143.901 Y100.909
G1 F1200 X154.09 Y111.098 E55.42071
G0 F6000 X154.09 Y111.664
G1 F1200 X143.336 Y100.909 E55.92657
G0 F6000 X142.77 Y100.909
G1 F1200 X154.09 Y112.229 E56.45903
G0 F6000 X154.09 Y112.795
G1 F1200 X142.204 Y100.909 E57.01811
G0 F6000 X141.639 Y100.909
G1 F1200 X154.09 Y113.361 E57.60379
G0 F6000 X154.09 Y113.926
G1 F1200 X141.073 Y100.909 E58.21607
G0 F6000 X140.507 Y100.909
G1 F1200 X154.09 Y114.492 E58.85497
G0 F6000 X154.09 Y115.058
G1 F1200 X139.942 Y100.909 E59.52047
G0 F6000 X139.376 Y100.909
G1 F1200 X154.09 Y115.623 E60.21257
G0 F6000 X154.09 Y116.189
G1 F1200 X138.81 Y100.909 E60.9313
G0 F6000 X138.245 Y100.909
G1 F1200 X154.09 Y116.755 E61.67662
G0 F6000 X154.09 Y117.321
G1 F1200 X137.679 Y100.909 E62.44857
G0 F6000 X137.113 Y100.909
G1 F1200 X154.09 Y117.886 E63.24711
G0 F6000 X154.09 Y118.452
G1 F1200 X136.547 Y100.909 E64.07228
G0 F6000 X135.982 Y100.909
G1 F1200 X154.09 Y119.018 E64.92405
G0 F6000 X154.09 Y119.583
G1 F1200 X135.416 Y100.909 E65.80242
G0 F6000 X134.85 Y100.909
G1 F1200 X154.09 Y120.149 E66.70741
G0 F6000 X154.09 Y120.715
G1 F1200 X134.285 Y100.909 E67.639
G0 F6000 X133.719 Y100.909
G1 F1200 X154.09 Y121.28 E68.59719
G0 F6000 X154.09 Y121.846
G1 F1200 X133.153 Y100.909 E69.582
G0 F6000 X132.588 Y100.909
G1 F1200 X154.09 Y122.412 E70.59341
G0 F6000 X154.09 Y122.977
G1 F1200 X132.022 Y100.909 E71.63142
G0 F6000 X131.456 Y100.909
G1 F1200 X154.09 Y123.543 E72.69606
G0 F6000 X154.09 Y124.109
G1 F1200 X130.891 Y100.909 E73.78729
G0 F6000 X130.325 Y100.909
G1 F1200 X154.09 Y124.674 E74.90512
G0 F6000 X154.09 Y125.24
G1 F1200 X129.759 Y100.909 E76.04958
G0 F6000 X129.194 Y100.909
G1 F1200 X154.09 Y125.806 E77.22063
G0 F6000 X154.09 Y126.372
G1 F1200 X128.628 Y100.909 E78.41831
G0 F6000 X128.062 Y100.909
G1 F1200 X154.09 Y126.937 E79.64259
G0 F6000 X154.09 Y127.503
G1 F1200 X127.497 Y100.909 E80.89347
G0 F6000 X126.931 Y100.909
G1 F1200 X154.09 Y128.069 E82.17097
G0 F6000 X154.09 Y128.634
G1 F1200 X126.365 Y100.909 E83.47506
G0 F6000 X125.799 Y100.909
G1 F1200 X154.09 Y129.2 E84.80579
G0 F6000 X154.09 Y129.766
G1 F1200 X125.234 Y100.909 E86.16311
G0 F6000 X124.668 Y100.909
G1 F1200 X154.09 Y130.331 E87.54703
G0 F6000 X154.09 Y130.897
G1 F1200 X124.102 Y100.909 E88.95757
G0 F6000 X123.537 Y100.909
G1 F1200 X154.09 Y131.463 E90.39472
G0 F6000 X154.09 Y132.028
G1 F1200 X122.971 Y100.909 E91.85846
G0 F6000 X122.405 Y100.909
G1 F1200 X154.09 Y132.594 E93.34882
G0 F6000 X154.09 Y133.16
G1 F1200 X121.84 Y100.909 E94.86579
G0 F6000 X121.274 Y100.909
G1 F1200 X154.09 Y133.725 E96.40935
G0 F6000 X153.889 Y134.09
G1 F1200 X120.708 Y100.909 E97.97008
G0 F6000 X120.143 Y100.909
G1 F1200 X153.323 Y134.09 E99.53079
G0 F6000 X152.757 Y134.09
G1 F1200 X119.577 Y100.909 E101.0915
G0 F6000 X119.011 Y100.909
G1 F1200 X152.192 Y134.09 E102.65223
G0 F6000 X151.626 Y134.09
G1 F1200 X118.446 Y100.909 E104.21294
G0 F6000 X117.88 Y100.909
G1 F1200 X151.06 Y134.09 E105.77365
G0 F6000 X150.494 Y134.09
G1 F1200 X117.314 Y100.909 E107.33436
G0 F6000 X116.748 Y100.909
