;FLAVOR:Marlin
;TIME:3453
;Filament used: 2.59188m
;Layer height: 0.2
;MINX:87.847
;MINY:87.843
;MINZ:0.2
;MAXX:147.154
;MAXY:147.156
;MAXZ:10
;TARGET_MACHINE.NAME:Creality Ender-3
;Generated with Cura_SteamEngine 5.6.0
M140 S50
M105
M190 S50
M104 S200
M105
M109 S200
M82 ;absolute extrusion mode
; Ender 3 Custom Start G-code
G92 E0 ; Reset Extruder
G28 ; Home all axes
G1 Z2.0 F3000 ; Move Z Axis up little to prevent scratching of Heat Bed
G1 X0.1 Y20 Z0.3 F5000.0 ; Move to start position
G1 X0.1 Y200.0 Z0.3 F1500.0 E15 ; Draw the first line
G1 X0.4 Y200.0 Z0.3 F5000.0 ; Move to side a little
G1 X0.4 Y20 Z0.3 F1500.0 E30 ; Draw the second line
G92 E0 ; Reset Extruder
G1 Z2.0 F3000 ; Move Z Axis up little to prevent scratching of Heat Bed
G1 X5 Y20 Z0.3 F5000.0 ; Move over to prevent blob squish
G92 E0
G92 E0
G1 F2700 E-5
;LAYER_COUNT:50
;LAYER:0
M107
G0 F6000 X91.72 Y91.401 Z0.2
;TYPE:SKIRT
G1 F2700 E0
G1 F1200 X92.348 Y90.84 E0.02801
G1 X92.606 Y90.628 E0.03911
G1 X93.361 Y90.061 E0.07052
G1 X94.445 Y89.404 E0.11268
G1 X94.741 Y89.248 E0.12381
G1 X95.558 Y88.862 E0.15386
G1 X96.746 Y88.437 E0.19583
G1 X97.161 Y88.316 E0.2102
G1 X98.111 Y88.085 E0.24272
G1 X99.143 Y87.933 E0.27742
G1 X99.434 Y87.905 E0.28714
G1 X100.207 Y87.857 E0.3129
G1 X100.794 Y87.845 E0.33243
G1 X133.821 Y87.843 E1.43091
G1 X134.7 Y87.856 E1.46015
G1 X135.622 Y87.909 E1.49086
G1 X135.943 Y87.942 E1.5016
G1 X136.899 Y88.086 E1.53375
G1 X137.664 Y88.264 E1.55988
G1 X138.005 Y88.357 E1.57163
G1 X138.933 Y88.655 E1.60405
G1 X139.765 Y89.004 E1.63406
G1 X140.59 Y89.425 E1.66486
G1 X141.439 Y89.928 E1.69769
G1 X142.55 Y90.749 E1.74363
G1 X143.391 Y91.52 E1.78158
G1 X144.078 Y92.259 E1.81514
G1 X144.655 Y92.954 E1.84518
G1 X145.247 Y93.816 E1.87996
G1 X145.722 Y94.661 E1.9122
G1 X146.075 Y95.428 E1.94029
G1 X146.259 Y95.878 E1.95646
G1 X146.588 Y96.795 E1.98886
G1 X146.828 Y97.706 E2.02019
G1 X146.9 Y98.045 E2.03172
G1 X147.062 Y99.01 E2.06427
G1 X147.141 Y100.088 E2.10022
G1 X147.154 Y100.77 E2.1229
G1 X147.15 Y134.103 E3.23156
G1 X147.138 Y134.856 E3.25661
G1 X147.077 Y135.839 E3.28937
G1 X146.888 Y137.008 E3.32876
G1 X146.78 Y137.493 E3.34528
G1 X146.525 Y138.433 E3.37768
G1 X146.214 Y139.281 E3.40772
G1 X145.682 Y140.386 E3.44851
G1 X145.451 Y140.804 E3.46439
G1 X144.958 Y141.608 E3.49576
G1 X144.222 Y142.579 E3.53629
G1 X144.011 Y142.827 E3.54712
G1 X143.395 Y143.488 E3.57717
G1 X142.746 Y144.08 E3.60638
G1 X142.473 Y144.308 E3.61821
G1 X141.722 Y144.882 E3.64965
G1 X140.541 Y145.603 E3.69568
G1 X140.245 Y145.759 E3.7068
G1 X139.428 Y146.144 E3.73684
G1 X138.254 Y146.563 E3.7783
G1 X137.839 Y146.684 E3.79268
G1 X136.889 Y146.915 E3.8252
G1 X135.857 Y147.067 E3.85989
G1 X135.564 Y147.095 E3.86968
G1 X134.761 Y147.144 E3.89644
G1 X134.119 Y147.156 E3.9178
G1 X100.867 Y147.152 E5.02376
G1 X100.135 Y147.14 E5.04811
G1 X99.15 Y147.079 E5.08094
G1 X97.96 Y146.884 E5.12104
G1 X97.631 Y146.81 E5.13226
G1 X96.724 Y146.562 E5.16353
G1 X95.691 Y146.174 E5.20024
G1 X95.192 Y145.956 E5.21835
G1 X94.38 Y145.56 E5.2484
G1 X93.473 Y145.009 E5.28369
G1 X92.417 Y144.205 E5.32784
G1 X92.067 Y143.902 E5.34323
G1 X91.385 Y143.256 E5.37448
G1 X90.716 Y142.498 E5.4081
G1 X90.13 Y141.699 E5.44106
G1 X89.775 Y141.163 E5.46244
G1 X89.275 Y140.326 E5.49487
G1 X88.852 Y139.449 E5.52726
G1 X88.509 Y138.539 E5.5596
G1 X88.259 Y137.654 E5.59019
G1 X88.146 Y137.177 E5.60649
G1 X87.965 Y136.205 E5.63938
G1 X87.86 Y134.913 E5.68249
G1 X87.847 Y134.153 E5.70777
G1 X87.85 Y100.851 E6.8154
G1 X87.863 Y100.096 E6.84052
G1 X87.923 Y99.125 E6.87287
G1 X88.056 Y98.231 E6.90294
G1 X88.207 Y97.562 E6.92575
G1 X88.317 Y97.135 E6.94041
G1 X88.603 Y96.204 E6.97281
G1 X88.942 Y95.367 E7.00284
G1 X89.331 Y94.592 E7.03168
G1 X89.551 Y94.194 E7.04681
G1 X90.068 Y93.356 E7.07956
G1 X90.837 Y92.352 E7.12162
G1 X91.052 Y92.104 E7.13254
G1 X91.72 Y91.401 E7.16479
G0 F6000 X91.986 Y91.699
G1 F1200 X92.602 Y91.149 E7.19226
G1 X92.846 Y90.948 E7.20277
G1 X93.601 Y90.381 E7.23418
G1 X94.631 Y89.758 E7.27421
G1 X94.912 Y89.61 E7.28478
G1 X95.729 Y89.224 E7.31483
G1 X96.858 Y88.821 E7.3547
G1 X97.256 Y88.705 E7.36849
G1 X98.17 Y88.481 E7.39979
G1 X99.182 Y88.331 E7.43382
G1 X99.459 Y88.304 E7.44307
G1 X100.215 Y88.257 E7.46827
G1 X100.794 Y88.245 E7.48753
G1 X133.815 Y88.243 E8.58581
G1 X134.677 Y88.255 E8.61448
G1 X135.581 Y88.307 E8.6446
G1 X135.884 Y88.338 E8.65473
G1 X136.809 Y88.476 E8.68584
G1 X137.559 Y88.65 E8.71144
G1 X137.883 Y88.738 E8.72261
G1 X138.778 Y89.024 E8.75386
G1 X139.61 Y89.373 E8.78387
G1 X140.387 Y89.77 E8.81289
G1 X141.201 Y90.25 E8.84432
G1 X142.312 Y91.071 E8.89027
G1 X143.098 Y91.792 E8.92574
G1 X143.77 Y92.515 E8.95857
G1 X144.347 Y93.21 E8.98862
G1 X144.899 Y94.012 E9.021
G1 X145.359 Y94.828 E9.05216
G1 X145.705 Y95.58 E9.07969
G1 X145.883 Y96.014 E9.09529
G1 X146.201 Y96.897 E9.1265
G1 X146.437 Y97.79 E9.15723
G1 X146.506 Y98.112 E9.16818
G1 X146.663 Y99.039 E9.19945
G1 X146.741 Y100.096 E9.2347
G1 X146.754 Y100.77 E9.25712
G1 X146.75 Y134.097 E10.36558
G1 X146.739 Y134.832 E10.39003
G1 X146.682 Y135.775 E10.42145
G1 X146.493 Y136.944 E10.46084
G1 X146.394 Y137.389 E10.476
G1 X146.149 Y138.295 E10.50722
G1 X145.838 Y139.143 E10.53726
G1 X145.332 Y140.193 E10.57603
G1 X145.11 Y140.595 E10.5913
G1 X144.639 Y141.366 E10.62135
G1 X143.903 Y142.337 E10.66188
G1 X143.718 Y142.554 E10.67136
G1 X143.102 Y143.215 E10.70141
G1 X142.489 Y143.773 E10.72898
G1 X142.229 Y143.991 E10.74027
G1 X141.513 Y144.541 E10.7703
G1 X140.355 Y145.249 E10.81544
G1 X140.074 Y145.397 E10.826
G1 X139.257 Y145.782 E10.85604
G1 X138.142 Y146.179 E10.89541
G1 X137.744 Y146.295 E10.9092
G1 X136.83 Y146.519 E10.9405
G1 X135.818 Y146.669 E10.97452
G1 X135.54 Y146.696 E10.98381
G1 X134.753 Y146.744 E11.01004
G1 X134.119 Y146.756 E11.03113
G1 X100.873 Y146.752 E12.13689
G1 X100.159 Y146.741 E12.16064
G1 X99.215 Y146.684 E12.1921
G1 X98.025 Y146.489 E12.23221
G1 X97.736 Y146.424 E12.24206
G1 X96.864 Y146.187 E12.27211
G1 X95.851 Y145.807 E12.3081
G1 X95.367 Y145.596 E12.32566
G1 X94.555 Y145.2 E12.35571
G1 X93.715 Y144.691 E12.38838
G1 X92.679 Y143.903 E12.43167
G1 X92.342 Y143.611 E12.4465
G1 X91.685 Y142.991 E12.47654
G1 X91.039 Y142.261 E12.50897
G1 X90.453 Y141.462 E12.54192
G1 X90.118 Y140.957 E12.56208
G1 X89.635 Y140.152 E12.5933
G1 X89.226 Y139.307 E12.62453
G1 X88.894 Y138.43 E12.65572
G1 X88.648 Y137.562 E12.68572
G1 X88.539 Y137.103 E12.70141
G1 X88.364 Y136.173 E12.73289
G1 X88.259 Y134.881 E12.776
G1 X88.247 Y134.153 E12.80022
G1 X88.25 Y100.858 E13.90761
G1 X88.262 Y100.12 E13.93216
G1 X88.319 Y99.184 E13.96335
G1 X88.452 Y98.29 E13.99341
G1 X88.594 Y97.661 E14.01486
G1 X88.699 Y97.252 E14.02891
G1 X88.974 Y96.354 E14.06014
G1 X89.313 Y95.517 E14.09018
G1 X89.681 Y94.785 E14.11743
G1 X89.892 Y94.403 E14.13194
G1 X90.386 Y93.599 E14.16333
G1 X91.14 Y92.613 E14.20461
G1 X91.342 Y92.379 E14.21489
G1 X91.986 Y91.699 E14.24604
G0 F6000 X92.253 Y91.997
G1 F1200 X92.857 Y91.457 E14.27299
G1 X93.087 Y91.267 E14.28291
G1 X93.808 Y90.723 E14.31296
G1 X94.818 Y90.112 E14.35222
G1 X95.083 Y89.972 E14.36218
G1 X95.9 Y89.586 E14.39224
G1 X96.971 Y89.205 E14.43005
G1 X97.352 Y89.093 E14.44326
G1 X98.229 Y88.877 E14.4733
G1 X99.222 Y88.729 E14.50669
G1 X99.484 Y88.703 E14.51545
G1 X100.223 Y88.657 E14.54007
G1 X100.794 Y88.645 E14.55907
G1 X133.81 Y88.643 E15.65718
G1 X134.654 Y88.654 E15.68526
G1 X135.541 Y88.705 E15.71481
G1 X135.826 Y88.734 E15.72434
G1 X136.719 Y88.866 E15.75436
G1 X137.455 Y89.036 E15.77948
G1 X137.762 Y89.119 E15.79006
G1 X138.623 Y89.393 E15.82011
G1 X139.455 Y89.742 E15.85012
G1 X140.185 Y90.115 E15.87739
G1 X140.964 Y90.572 E15.90743
G1 X142.042 Y91.366 E15.95196
G1 X142.805 Y92.064 E15.98635
G1 X143.462 Y92.771 E16.01845
G1 X144.039 Y93.466 E16.0485
G1 X144.551 Y94.209 E16.07851
G1 X144.996 Y94.995 E16.10855
G1 X145.335 Y95.733 E16.13556
G1 X145.507 Y96.15 E16.15056
G1 X145.814 Y96.999 E16.18059
G1 X146.046 Y97.875 E16.21073
G1 X146.112 Y98.179 E16.22108
G1 X146.264 Y99.069 E16.25111
G1 X146.341 Y100.104 E16.28563
G1 X146.354 Y100.77 E16.30778
G1 X146.35 Y134.091 E17.41605
G1 X146.34 Y134.809 E17.43993
G1 X146.287 Y135.711 E17.46998
G1 X146.098 Y136.88 E17.50937
G1 X146.008 Y137.285 E17.52317
G1 X145.773 Y138.157 E17.5532
G1 X145.462 Y139.005 E17.58324
G1 X144.982 Y140 E17.61999
G1 X144.769 Y140.386 E17.63465
G1 X144.298 Y141.157 E17.6647
G1 X143.599 Y142.077 E17.70313
G1 X143.425 Y142.281 E17.71205
G1 X142.809 Y142.942 E17.7421
G1 X142.231 Y143.467 E17.76807
G1 X141.985 Y143.674 E17.77876
G1 X141.269 Y144.224 E17.80879
G1 X140.169 Y144.895 E17.85165
G1 X139.903 Y145.035 E17.86165
G1 X139.086 Y145.42 E17.89169
G1 X138.029 Y145.795 E17.92899
G1 X137.648 Y145.907 E17.9422
G1 X136.771 Y146.123 E17.97224
G1 X135.778 Y146.271 E18.00563
G1 X135.516 Y146.297 E18.01439
G1 X134.745 Y146.344 E18.04008
G1 X134.119 Y146.356 E18.0609
G1 X100.879 Y146.352 E19.16647
G1 X100.182 Y146.342 E19.18966
G1 X99.28 Y146.289 E19.21971
G1 X98.09 Y146.094 E19.25982
G1 X97.841 Y146.038 E19.2683
G1 X96.969 Y145.801 E19.29836
G1 X96.011 Y145.44 E19.33241
G1 X95.542 Y145.236 E19.34942
G1 X94.73 Y144.84 E19.37947
G1 X93.957 Y144.373 E19.40951
G1 X92.941 Y143.6 E19.45197
G1 X92.617 Y143.32 E19.46621
G1 X91.96 Y142.7 E19.49625
G1 X91.361 Y142.024 E19.5263
G1 X90.786 Y141.241 E19.55861
G1 X90.461 Y140.751 E19.57816
G1 X89.995 Y139.977 E19.60821
G1 X89.6 Y139.165 E19.63824
G1 X89.279 Y138.321 E19.66828
G1 X89.037 Y137.47 E19.6977
G1 X88.932 Y137.028 E19.71281
G1 X88.763 Y136.141 E19.74285
G1 X88.658 Y134.849 E19.78596
G1 X88.647 Y134.153 E19.80911
G1 X88.65 Y100.864 E20.91631
G1 X88.661 Y100.144 E20.94026
G1 X88.715 Y99.243 E20.97028
G1 X88.848 Y98.349 E21.00034
G1 X88.981 Y97.761 E21.02039
G1 X89.082 Y97.368 E21.03389
G1 X89.345 Y96.504 E21.06393
G1 X89.684 Y95.667 E21.09396
G1 X90.031 Y94.978 E21.11962
G1 X90.233 Y94.612 E21.13353
G1 X90.704 Y93.842 E21.16355
G1 X91.443 Y92.874 E21.20405
G1 X91.633 Y92.654 E21.21372
G1 X92.253 Y91.997 E21.24377
G1 F2700 E16.24377
;MESH:3dprint_test_Box.stl
G0 F6000 X99.169 Y99.99
G0 X100.569 Y134.668
;TYPE:WALL-INNER
G1 F2700 E21.24377
G1 F1200 X134.415 Y134.668 E22.36949
G1 X134.621 Y134.586 E22.37686
G1 X134.665 Y134.454 E22.38149
G1 X134.667 Y100.561 E23.50878
G1 X134.622 Y100.413 E23.51392
G1 X134.433 Y100.335 E23.52072
G1 X100.585 Y100.333 E24.64651
G1 X100.379 Y100.414 E24.65387
G1 X100.335 Y100.545 E24.65847
G1 X100.332 Y134.432 E25.78556
G1 X100.391 Y134.618 E25.79205
G1 X100.569 Y134.668 E25.7982
G1 F2700 E20.7982
G0 F6000 X100.433 Y134.369
G0 X134.431 Y134.769
G0 X134.47 Y135.068
;TYPE:WALL-OUTER
G1 F2700 E25.7982
G1 F1200 X134.77 Y134.983 E25.80857
G1 X134.937 Y134.844 E25.81579
G1 X135.027 Y134.677 E25.8221
G1 X135.065 Y134.494 E25.82832
G1 X135.067 Y100.522 E26.95823
G1 X135.029 Y100.326 E26.96487
G1 X134.936 Y100.154 E26.97138
G1 X134.767 Y100.015 E26.97866
G1 X134.49 Y99.935 E26.98825
G1 X100.53 Y99.933 E28.11776
G1 X100.23 Y100.017 E28.12812
G1 X100.063 Y100.156 E28.13535
G1 X99.973 Y100.323 E28.14166
G1 X99.935 Y100.505 E28.14784
G1 X99.932 Y134.477 E29.27775
G1 X99.989 Y134.722 E29.28612
G1 X100.184 Y134.989 E29.29712
G1 X100.524 Y135.068 E29.30873
G1 X134.47 Y135.068 E30.43778
G0 F6000 X134.302 Y134.308
;TYPE:SKIN
G1 F1200 X100.693 Y134.308 E31.55562
G1 X100.698 Y100.693 E32.67366
G1 X134.301 Y100.695 E33.7913
G1 X134.302 Y134.308 E34.90927
G1 F2700 E29.90927
G0 F6000 X134.562 Y134.307
G0 X101.297 Y134.568
G0 X101.297 Y134.107
G1 F2700 E34.90927
G1 F1200 X100.892 Y133.702 E34.92832
G0 F6000 X100.892 Y133.136
G1 F1200 X101.862 Y134.107 E34.97397
G0 F6000 X102.428 Y134.107
G1 F1200 X100.892 Y132.571 E35.04622
G0 F6000 X100.892 Y132.005
G1 F1200 X102.994 Y134.107 E35.14509
G0 F6000 X103.56 Y134.107
G1 F1200 X100.892 Y131.439 E35.27058
G0 F6000 X100.892 Y130.874
G1 F1200 X104.125 Y134.107 E35.42265
G0 F6000 X104.691 Y134.107
G1 F1200 X100.892 Y130.308 E35.60135
G0 F6000 X100.892 Y129.742
G1 F1200 X105.257 Y134.107 E35.80666
G0 F6000 X105.822 Y134.107
G1 F1200 X100.892 Y129.177 E36.03855
G0 F6000 X100.892 Y128.611
G1 F1200 X106.388 Y134.107 E36.29707
G0 F6000 X106.954 Y134.107
G1 F1200 X100.893 Y128.046 E36.58216
G0 F6000 X100.893 Y127.48
G1 F1200 X107.519 Y134.107 E36.89385
G0 F6000 X108.085 Y134.107
G1 F1200 X100.893 Y126.915 E37.23214
G0 F6000 X100.893 Y126.349
G1 F1200 X108.651 Y134.107 E37.59705
G0 F6000 X109.216 Y134.107
G1 F1200 X100.893 Y125.783 E37.98857
G0 F6000 X100.893 Y125.218
G1 F1200 X109.782 Y134.107 E38.40668
G0 F6000 X110.348 Y134.107
G1 F1200 X100.893 Y124.652 E38.85141
G0 F6000 X100.893 Y124.086
G1 F1200 X110.913 Y134.107 E39.32274
G0 F6000 X111.479 Y134.107
G1 F1200 X100.893 Y123.52 E39.8207
G0 F6000 X100.894 Y122.955
G1 F1200 X112.045 Y134.107 E40.34523
G0 F6000 X112.61 Y134.107
G1 F1200 X100.894 Y122.39 E40.89634
G0 F6000 X100.894 Y121.824
G1 F1200 X113.176 Y134.107 E41.47407
G0 F6000 X113.742 Y134.107
G1 F1200 X100.894 Y121.258 E42.07843
G0 F6000 X100.894 Y120.693
G1 F1200 X114.308 Y134.107 E42.70938
G0 F6000 X114.873 Y134.107
G1 F1200 X100.894 Y120.127 E43.36693
G0 F6000 X100.894 Y119.561
G1 F1200 X115.439 Y134.107 E44.05111
G0 F6000 X116.005 Y134.107
G1 F1200 X100.894 Y118.996 E44.76188
G0 F6000 X100.894 Y118.43
G1 F1200 X116.57 Y134.107 E45.49926
G0 F6000 X117.136 Y134.107
G1 F1200 X100.894 Y117.864 E46.26326
G0 F6000 X100.894 Y117.299
G1 F1200 X117.702 Y134.107 E47.05385
G0 F6000 X118.267 Y134.107
G1 F1200 X100.894 Y116.734 E47.87103
G0 F6000 X100.894 Y116.168
G1 F1200 X118.833 Y134.107 E48.71482
G0 F6000 X119.399 Y134.107
G1 F1200 X100.894 Y115.602 E49.58524
G0 F6000 X100.894 Y115.037
G1 F1200 X119.964 Y134.107 E50.48223
G0 F6000 X120.53 Y134.107
G1 F1200 X100.894 Y114.471 E51.40585
G0 F6000 X100.894 Y113.905
G1 F1200 X121.096 Y134.107 E52.35609
G0 F6000 X121.661 Y134.107
G1 F1200 X100.894 Y113.34 E53.33291
G0 F6000 X100.894 Y112.774
G1 F1200 X122.227 Y134.107 E54.33635
G0 F6000 X122.793 Y134.107
G1 F1200 X100.894 Y112.208 E55.36641
G0 F6000 X100.895 Y111.643
G1 F1200 X123.359 Y134.107 E56.42305
G0 F6000 X123.924 Y134.107
G1 F1200 X100.895 Y111.077 E57.50628
G0 F6000 X100.895 Y110.512
G1 F1200 X124.49 Y134.107 E58.61612
G0 F6000 X125.056 Y134.107
G1 F1200 X100.895 Y109.946 E59.75258
G0 F6000 X100.895 Y109.38
G1 F1200 X125.621 Y134.107 E60.91564
G0 F6000 X126.187 Y134.107
G1 F1200 X100.895 Y108.815 E62.10529
G0 F6000 X100.895 Y108.249
G1 F1200 X126.753 Y134.107 E63.32158
G0 F6000 X127.318 Y134.107
G1 F1200 X100.895 Y107.683 E64.56446
G0 F6000 X100.895 Y107.118
G1 F1200 X127.884 Y134.107 E65.83394
G0 F6000 X128.45 Y134.107
G1 F1200 X100.895 Y106.552 E67.13004
G0 F6000 X100.896 Y105.987
G1 F1200 X129.015 Y134.107 E68.45269
G0 F6000 X129.581 Y134.107
G1 F1200 X100.896 Y105.421 E69.80197
G0 F6000 X100.896 Y104.856
G1 F1200 X130.147 Y134.107 E71.17785
G0 F6000 X130.712 Y134.107
G1 F1200 X100.896 Y104.29 E72.58033
G0 F6000 X100.896 Y103.724
G1 F1200 X131.278 Y134.107 E74.00943
G0 F6000 X131.844 Y134.107
G1 F1200 X100.896 Y103.159 E75.46512
G0 F6000 X100.896 Y102.593
G1 F1200 X132.409 Y134.107 E76.94742
G0 F6000 X132.975 Y134.107
G1 F1200 X100.896 Y102.027 E78.45634
G0 F6000 X100.896 Y101.462
G1 F1200 X133.541 Y134.107 E79.99187
G0 F6000 X134.102 Y134.102
G1 F1200 X100.896 Y100.896 E81.55377
G0 F6000 X101.459 Y100.893
G1 F1200 X134.102 Y133.536 E83.0892
G0 F6000 X134.102 Y132.97
G1 F1200 X102.024 Y100.893 E84.59803
G0 F6000 X102.59 Y100.893
G1 F1200 X134.102 Y132.405 E86.08026
G0 F6000 X134.102 Y131.839
G1 F1200 X103.156 Y100.893 E87.53586
G0 F6000 X103.721 Y100.893
G1 F1200 X134.102 Y131.273 E88.96487
G0 F6000 X134.102 Y130.707
G1 F1200 X104.287 Y100.893 E90.36725
G0 F6000 X104.853 Y100.893
G1 F1200 X134.102 Y130.142 E91.74303
G0 F6000 X134.102 Y129.576
G1 F1200 X105.419 Y100.893 E93.09219
G0 F6000 X105.984 Y100.893
G1 F1200 X134.102 Y129.01 E94.41475
G0 F6000 X134.102 Y128.445
G1 F1200 X106.55 Y100.893 E95.71071
G0 F6000 X107.116 Y100.893
G1 F1200 X134.102 Y127.879 E96.98005
G0 F6000 X134.102 Y127.313
G1 F1200 X107.681 Y100.893 E98.22279
G0 F6000 X108.247 Y100.893
G1 F1200 X134.102 Y126.748 E99.43893
G0 F6000 X134.102 Y126.182
